!!!!SEGMENT: pl-sa--573-a-ix-53--001_anonim--polonaise.krn
!!!id: 18xx:602
!!!COM: Anonim
!!!COM-rism: pe30004985
!!!CDT:
!!!CNT:
!!!OTL: Polonaise
!!!PDT:
!!!SMS-siglum: PL-SA
!!!SMS-shelfmark: 573/A IX 53
!!!SMS-variant:
!!!SMS-altvar:
!!!NIFC-rismID: 1001077291
!!!system-decoration: {(s1,s2)}
**kern	**kern
*part2	*part1
*staff2	*staff1
*clefF4	*clefG2
*k[b-]	*k[b-]
*M3/4	*M3/4
*>[A,A,B,B,C,C,D,D,C,C,D,D]	*>[A,A,B,B,C,C,D,D,C,C,D,D]
=1	=1
*>A	*>A
*2\right	*2\right
*tremolo	*
!	!LO:TX:a:Bi:t=Polonaise:rj
!LO:TX:a:t=P:mixed beam:problem	!
8FF/L	8.ccL 8.a\
8F\	.
.	16b-Jk 16g\
8FF/	8aL 8f/
8F\	8aJ 8f/
8FF/	8aL 8f\
8F\J	8ccJ 8a\
*Xtremolo	*
=2	=2
4C 4CC/	8ccL 8a\
.	8b-J 8g\
8r	4.g 4.e/
8C#X/L	.
8C# 8CC#X/	.
8C#/J	16aLL 16f/
.	16gJJ 16e/
=3	=3
4D 4DD/	8fL 8d/
.	8fJ 8d/
8r	8fL 8d/
8D/L	16gL 16e/
.	16aJJ 16f/
8C#X/	8b-L 8g\
8D/J	8aJ 8f\
=4	=4
4D 4DD/	8g/L
.	8f#X/J
8r	8g/L
!LO:TX:a:t=P:mixed beam:problem	!
8BBn\L	16a/L
.	16fn/JJ
8C\	16f/LL
.	16e/
8CC/J	16d/
.	16c/JJ
=5	=5
16F\LL	8.cccL 8.aa\
16c\	.
16A\	.
16c\JJ	16bb-Jk 16gg\
*rep	*
16F\LL	8aaL 8ff\
16c\	.
16A\	8aaJ 8ff\
16c\JJ	.
*Xrep	*
*rep	*
16F\LL	16aaLL 16ff\
16c\	16bb- 16gg\
16A\	16ccc 16aa\
16c\JJ	16bb-JJ 16gg\
*Xrep	*
=6	=6
16E\LL	8.cccL 8.aa\
16c\	.
16G\	.
16c\JJ	16bb-Jk 16gg\
*rep	*
16E\LL	4.gg 4.ee\
16c\	.
16G\	.
16c\JJ	.
*Xrep	*
*rep	*
16E\LL	.
16c\	.
16G\	16ccc\LL
16c\JJ	16aa\JJ
*Xrep	*
=7	=7
.	16qqaL
.	16qqccJ
*tremolo	*
!LO:TX:a:t=P:mixed beam:problem	!
8FF/L	8ff\
8F\	4ff 4cc 4a\
8FF/	.
8F\J	16gg\LL
.	16aa\JJ
*Xtremolo	*
!LO:TX:a:t=P:mixed beam:problem	!
8BB-/L	16bb-\LL
.	16ccc\
8B-\J	16ddd\
.	16ccc\JJ
!!LO:LB:g=original
=8	=8
!LO:TX:a:t=P:mixed beam:problem	!
8c\L	8aaL 8ff\
8C/J	8aaJ 8ff\
8E\L	16gg\LL
.	16ff\
8C\J	16gg\
.	16aa\JJ
4F\	4ff\
=9:|!|:	=9:|!|:
*>B	*>B
8r	16ff\LL
.	16gg\J
8C/	8gg\J
*tremolo	*
8c\L	8ccc\L
8c\	8bbn\
8c\	8ccc 8aa-X\
8c\J	8gg\J
*Xtremolo	*
=10	=10
4F\	16.gg#X\LL
.	32aa\K
.	16.ee\
.	32ggn\JJk
8r	4.ff\
8F\L	.
8A\	.
8F\J	8aa\
=11	=11
16E\LL	8gg\L
16c\	.
16G\	16aa\L
16c\JJ	16gg\JJ
*rep	*
16E\LL	16ff#X\LL
16c\	16gg\
16G\	16bb-\
16c\JJ	16gg\JJ
*Xrep	*
*rep	*
16E\LL	16ffn\LL
16c\	16ee\
16G\	16dd\
16c\JJ	16cc\JJ
*Xrep	*
=12	=12
16F\LL	16ff\LL
16c\	16cc\
16A\	16ff\
16c\JJ	16aa\JJ
16E\LL	16gg\LL
16c\	16ff\
16G\	16gg\
16c\JJ	16aa\JJ
16F\LL	4ff\
16c\	.
16A\	.
16F\JJ	.
=13	=13
8r	16ff#X\LL
.	16gg\J
8C/	8gg\J
*tremolo	*
8c\L	8ccc#XL 8aa\
8c\	8bbn 8gg#X\
8c\	8bb-X 8ggn\
8c\J	8ggJ 8ee\
*Xtremolo	*
=14	=14
4F\	8.gg#X\L
.	16aa\K
8r	8.ee\
8C/	.
.	16ggn\Jk
!	!LO:N:vis=8.
4F\	8ff\L
!	!LO:TUP:a:problem:klamra łukowa
.	24cc\L
.	24dd\
.	24ee\JJ
!!LO:LB:g=original
=15	=15
!	!LO:TX:a:t=P:mixed beam:problem
8r	8ff\L
16F\LL	16f/L
16E\JJ	16e/JJ
8F\L	8f\L
8E\	8g\
8F\	8a\
8D\J	8bn\J
=16	=16
8C/L	8cc\L
8GG/J	16dd\L
.	16bn\JJ
8C/L	8cc\L
8GG/J	16dd\L
.	16b\JJ
4C/	4cc\
=17||	=17||
*>C	*>C
*k[b-]	*k[b-]
*M3/4	*M3/4
!	!LO:TX:a:t=P:w źródle po lewej stronie systemu klamra i metrum 3/4 pomiędzy pięcioliniami:problem
!	!LO:TX:a:Bi:t=Trio:rj
!LO:TX:a:t=P:mixed beam:problem	!
8D/L	8.aaL 8.ff\
8d\J	.
.	16bb-Jk 16gg\
8r	8aaL 8ff\
*8ba	*
8DD/L	8aaJ 8ff\
8DD/	8aaL 8ff\
8CC#X/J	8ggJ 8ee\
*X8ba	*
=18	=18
8r	8ggL 8ee\
8D\L	8ffJ 8dd\
8F\	4.ff 4.dd\
8A\	.
8F\	.
8D\J	16ggLL 16ee\
.	16aaJJ 16ff\
=19	=19
!LO:TX:a:t=P:mixed beam:problem	!
8C/L	8.bb-L 8.gg\
8c\J	.
.	16cccJk 16aa\
4C/	8bb-L 8gg\
.	8bb-J 8gg\
4r	8bb-L 8gg\
.	8aaJ 8ff\
=20	=20
8r	8aaL 8ff\
8C\L	8ggJ 8ee\
8E\	4.gg 4.ee\
8G\	.
8E\	.
8C\J	16aaLL 16ff\
.	16bb-JJ 16gg\
=21	=21
16F\LL	8aa 8ff\
16c\	.
16A\	4ccc 4aa\
16c\JJ	.
*rep	*
16F\LL	.
16c\	.
16A\	16ddd\LL
16c\JJ	16ccc\JJ
*Xrep	*
*rep	*
16F\LL	16bb-\LL
16c\	16aa\
16A\	16gg\
16c\JJ	16ff\JJ
*Xrep	*
=22	=22
16E\LL	16ee\LL
16c\	16ff\
16G\	16gg\
16c\JJ	16aa\JJ
*rep	*
16E\LL	16ccc\LL
16c\	16bb-\J
16G\	8bb-\J
16c\JJ	.
*Xrep	*
*rep	*
16E\LL	8.ggL 8.ee\
16c\	.
16G\	.
16c\JJ	16bb-Jk 16gg\
*Xrep	*
!!LO:LB:g=original
=23	=23
16F\LL	16aa\LL
16c\	16ccc\
16A\	16bbn\
16c\JJ	16ccc\JJ
*rep	*
16F\LL	16ddd\LL
16c\	16ccc\
16A\	16bb\
16c\JJ	16ccc\JJ
*Xrep	*
*rep	*
16F\LL	16bb-X\LL
16c\	16aa\
16A\	16gg\
16c\JJ	16ff\JJ
*Xrep	*
=24	=24
4C\	16ff\LL
.	16ee\
.	16bb-\
.	16gg\JJ
.	8qqgg/
8r	2ff\
8C\	.
4F\	.
=25:|!|:	=25:|!|:
*>D	*>D
!LO:TX:a:t=P:mixed beam:problem	!
8C/L	8.bb-L 8.gg\
8c\J	.
.	16aaJk 16ff\
*tremolo	*
8c\L	8ggL 8ee\
8c\	8bb-J 8gg\
8c\	4gg 4ee\
8c\J	.
*Xtremolo	*
=26	=26
4C/	8c/L
.	32c/LL
.	32d/
.	32e/
.	32f/JJJ
8G\L	8g/L
32G\LL	32g/LL
32F\	32f/
32E\	32e/
32D\JJJ	32d/JJJ
4C/	4c/
=27	=27
*tremolo	*
8F\L	8.cccL 8.aa\
8f\	.
.	16bb-Jk 16gg\
8F\	8aaL 8ff\
8f\	8cccJ 8aa\
8F\	4aa 4ff\
8f\J	.
*Xtremolo	*
=28	=28
4F\	8f\L
.	32f\LL
.	32g\
.	32a\
.	32b-\JJJ
8r	8cc\L
8C/	32cc\LL
.	32b-\
.	32a\
.	32g\JJJ
4F\	4f/
=29	=29
!	!LO:TX:a:t=P:w źródle tajemniczy znak nad nutą 8f:problem
16F\LL	8f\L
16c\	.
16A\	16a\L
16c\JJ	16cc\JJ
*rep	*
16F\LL	16ff\LL
16c\	16cc\
16A\	16a\
16c\JJ	16cc\JJ
*Xrep	*
*rep	*
16F\LL	16ff\LL
16c\	16cc\
16A\	16ff\
16c\JJ	16aa\JJ
*Xrep	*
=30	=30
4BB-/	16.aa\LL
.	32bb-\K
.	16.ff#X\
.	32gg\JJk
8r	16b-\LL
.	16gg\
8B-\	16bb-\
.	16gg\JJ
!LO:TX:a:t=P:mixed beam:problem	!
8c\L	8ffn\L
8C/J	8ee\J
!LO:TX:a:t=P:w źródle brak podwójnej kreski:problem	!LO:TX:a:t=P:w źródle brak podwójnej kreski:problem
!	!LO:TX:b:Bi:t=Trio da Capo
==	==
*-	*-
!!title: @{OTL};
!!!RDF**kern: > = above
!!!RDF**kern: < = below
!!!EED: Wojciech Jakubiak-Danek
!!!EST: 2020-12-10
!!!URL-scan: http://bc.bdsandomierz.pl/dlibra/publication/1379/edition/1347/content
!!!ONB-nifc: Str. 1
!!!ENC: Berenika Jozajtis
!!!END: 2020-06-19
